src/layouts/img/shopping-cart-empty-side-view.svg

<?xml version="1.0" encoding="iso-8859-1"?>
<!-- Generator: Adobe Illustrator 16.0.0, SVG Export Plug-In . SVG Version: 6.00 Build 0)  -->
<!DOCTYPE svg PUBLIC "-//W3C//DTD SVG 1.1//EN" "http://www.w3.org/Graphics/SVG/1.1/DTD/svg11.dtd">
<svg version="1.1" id="Capa_1" xmlns="http://www.w3.org/2000/svg" xmlns:xlink="http://www.w3.org/1999/xlink" x="0px" y="0px"
	 width="446.853px" height="446.853px" viewBox="0 0 446.853 446.853" style="enable-background:new 0 0 446.853 446.853;"
	 xml:space="preserve">
<g>
	<path d="M444.274,93.36c-2.558-3.666-6.674-5.932-11.145-6.123L155.942,75.289c-7.953-0.348-14.599,5.792-14.939,13.708
		c-0.338,7.913,5.792,14.599,13.707,14.939l258.421,11.14L362.32,273.61H136.205L95.354,51.179
		c-0.898-4.875-4.245-8.942-8.861-10.753L19.586,14.141c-7.374-2.887-15.695,0.735-18.591,8.1c-2.891,7.369,0.73,15.695,8.1,18.591
		l59.491,23.371l41.572,226.335c1.253,6.804,7.183,11.746,14.104,11.746h6.896l-15.747,43.74c-1.318,3.664-0.775,7.733,1.468,10.916
		c2.24,3.184,5.883,5.078,9.772,5.078h11.045c-6.844,7.617-11.045,17.646-11.045,28.675c0,23.718,19.299,43.012,43.012,43.012
		s43.012-19.294,43.012-43.012c0-11.028-4.201-21.058-11.044-28.675h93.777c-6.847,7.617-11.047,17.646-11.047,28.675
		c0,23.718,19.294,43.012,43.012,43.012c23.719,0,43.012-19.294,43.012-43.012c0-11.028-4.2-21.058-11.042-28.675h13.432
		c6.6,0,11.948-5.349,11.948-11.947c0-6.6-5.349-11.948-11.948-11.948H143.651l12.902-35.843h216.221
		c6.235,0,11.752-4.028,13.651-9.96l59.739-186.387C447.536,101.679,446.832,97.028,444.274,93.36z M169.664,409.814
		c-10.543,0-19.117-8.573-19.117-19.116s8.574-19.117,19.117-19.117s19.116,8.574,19.116,19.117S180.207,409.814,169.664,409.814z
		 M327.373,409.814c-10.543,0-19.116-8.573-19.116-19.116s8.573-19.117,19.116-19.117s19.116,8.574,19.116,19.117
		S337.916,409.814,327.373,409.814z"/>
</g>
<g>
</g>
<g>
</g>
<g>
</g>
<g>
</g>
<g>
</g>
<g>
</g>
<g>
</g>
<g>
</g>
<g>
</g>
<g>
</g>
<g>
</g>
<g>
</g>
<g>
</g>
<g>
</g>
<g>
</g>
</svg>

<?xml version="1.0" encoding="UTF-8" standalone="no"?>
<!DOCTYPE svg PUBLIC "-//W3C//DTD SVG 1.1//EN" "http://www.w3.org/Graphics/SVG/1.1/DTD/svg11.dtd">
<svg width="100%" height="100%" viewBox="0 0 447 447" version="1.1" xmlns="http://www.w3.org/2000/svg" xmlns:xlink="http://www.w3.org/1999/xlink" xml:space="preserve" xmlns:serif="http://www.serif.com/" style="fill-rule:evenodd;clip-rule:evenodd;stroke-linejoin:round;stroke-miterlimit:1.41421;">
    <path d="M444.274,93.36C441.716,89.694 437.6,87.428 433.129,87.237L155.942,75.289C147.989,74.941 141.343,81.081 141.003,88.997C140.665,96.91 146.795,103.596 154.71,103.936L413.131,115.076L362.32,273.61L136.205,273.61L95.354,51.179C94.456,46.304 91.109,42.237 86.493,40.426L19.586,14.141C12.212,11.254 3.891,14.876 0.995,22.241C-1.896,29.61 1.725,37.936 9.095,40.832L68.586,64.203L110.158,290.538C111.411,297.342 117.341,302.284 124.262,302.284L131.158,302.284L115.411,346.024C114.093,349.688 114.636,353.757 116.879,356.94C119.119,360.124 122.762,362.018 126.651,362.018L137.696,362.018C130.852,369.635 126.651,379.664 126.651,390.693C126.651,414.411 145.95,433.705 169.663,433.705C193.376,433.705 212.675,414.411 212.675,390.693C212.675,379.665 208.474,369.635 201.631,362.018L295.408,362.018C288.561,369.635 284.361,379.664 284.361,390.693C284.361,414.411 303.655,433.705 327.373,433.705C351.092,433.705 370.385,414.411 370.385,390.693C370.385,379.665 366.185,369.635 359.343,362.018L372.775,362.018C379.375,362.018 384.723,356.669 384.723,350.071C384.723,343.471 379.374,338.123 372.775,338.123L143.651,338.123L156.553,302.28L372.774,302.28C379.009,302.28 384.526,298.252 386.425,292.32L446.164,105.933C447.536,101.679 446.832,97.028 444.274,93.36ZM169.664,409.814C159.121,409.814 150.547,401.241 150.547,390.698C150.547,380.155 159.121,371.581 169.664,371.581C180.207,371.581 188.78,380.155 188.78,390.698C188.78,401.241 180.207,409.814 169.664,409.814ZM327.373,409.814C316.83,409.814 308.257,401.241 308.257,390.698C308.257,380.155 316.83,371.581 327.373,371.581C337.916,371.581 346.489,380.155 346.489,390.698C346.489,401.241 337.916,409.814 327.373,409.814Z" style="fill:white;fill-rule:nonzero;"/>
</svg>
